poi/svg/1503.svg

<?xml version="1.0" encoding="UTF-8" standalone="no"?>
<svg
   xmlns:dc="http://purl.org/dc/elements/1.1/"
   xmlns:cc="http://creativecommons.org/ns#"
   xmlns:rdf="http://www.w3.org/1999/02/22-rdf-syntax-ns#"
   xmlns:svg="http://www.w3.org/2000/svg"
   xmlns="http://www.w3.org/2000/svg"
   xmlns:sodipodi="http://sodipodi.sourceforge.net/DTD/sodipodi-0.dtd"
   xmlns:inkscape="http://www.inkscape.org/namespaces/inkscape"
   inkscape:version="1.0 (4035a4fb49, 2020-05-01)"
   sodipodi:docname="1503.svg"
   id="svg20"
   version="1.2"
   viewBox="0 0 42.519639 42.519639"
   height="14.999999mm"
   width="14.999999mm">
  <metadata
     id="metadata24">
    <rdf:RDF>
      <cc:Work
         rdf:about="">
        <dc:format>image/svg+xml</dc:format>
        <dc:type
           rdf:resource="http://purl.org/dc/dcmitype/StillImage" />
        <dc:title>Qt SVG Document</dc:title>
      </cc:Work>
    </rdf:RDF>
  </metadata>
  <sodipodi:namedview
     inkscape:current-layer="svg20"
     inkscape:window-maximized="0"
     inkscape:window-y="0"
     inkscape:window-x="0"
     inkscape:cy="28.346482"
     inkscape:cx="28.346482"
     inkscape:zoom="5.8410537"
     showgrid="false"
     id="namedview22"
     inkscape:window-height="480"
     inkscape:window-width="1034"
     inkscape:pageshadow="2"
     inkscape:pageopacity="0"
     guidetolerance="10"
     gridtolerance="10"
     objecttolerance="10"
     borderopacity="1"
     bordercolor="#666666"
     pagecolor="#ffffff" />
  <title
     id="title2">Qt SVG Document</title>
  <desc
     id="desc4">Generated with Qt</desc>
  <defs
     id="defs6" />
  <g
     transform="translate(5.25984,5.25984)"
     id="g18"
     stroke-linejoin="bevel"
     stroke-linecap="square"
     fill-rule="evenodd"
     stroke-width="1"
     stroke="#000000"
     fill="none">
    <g
       id="g10"
       font-style="normal"
       font-weight="400"
       font-size="7.8px"
       font-family="'MS Shell Dlg 2'"
       stroke="none"
       fill-opacity="1"
       fill="#4c62ad">
      <path
         id="path8"
         d="M 37.2598,16 C 37.2598,27.7415 27.7415,37.2598 16,37.2598 4.25851,37.2598 -5.25984,27.7415 -5.25984,16 -5.25984,4.25851 4.25851,-5.25984 16,-5.25984 27.7415,-5.25984 37.2598,4.25851 37.2598,16"
         fill-rule="evenodd"
         vector-effect="non-scaling-stroke" />
    </g>
    <g
       id="g14"
       font-style="normal"
       font-weight="400"
       font-size="7.8px"
       font-family="'MS Shell Dlg 2'"
       transform="translate(15.4331,12.5984)"
       stroke="none"
       fill-opacity="0.94902"
       fill="#ffffff">
      <path
         id="path12"
         d="m -3.34717,5.91553 c 0.97982,0.48991 1.77067,1.20027 2.372561,2.1311 0.601888,0.93083 0.9028317,1.97017 0.9028317,3.11797 v 3.4853 H -11.8086 v -3.4853 c 0,-1.1478 0.301,-2.18714 0.9028,-3.11797 0.6019,-0.93083 1.38578,-1.64119 2.3516,-2.1311 l 2.07861,2.22558 -0.5249,4.09429 1.02881,1.5117 1.02881,-1.5117 -0.46192,-4.09429 2.05762,-2.22558 M 0.432129,-2.25195 C 0.488118,-2.5459 0.575602,-2.82935 0.69458,-3.10229 0.813558,-3.37524 0.943034,-3.6237 1.08301,-3.84766 L 0.306152,-4.83447 1.08301,-5.61133 2.06982,-4.83447 C 2.29378,-4.97445 2.54224,-5.10392 2.81519,-5.2229 3.08813,-5.34188 3.37158,-5.42936 3.66553,-5.48535 L 3.7915,-6.72412 h 1.0708 l 0.16797,1.23877 c 0.29395,0.05599 0.5774,0.14347 0.85035,0.26245 0.27294,0.11898 0.5214,0.24845 0.74536,0.38843 l 0.98681,-0.77686 0.77686,0.77686 -0.81885,0.98681 c 0.32194,0.46192 0.5529,0.99382 0.69287,1.59571 l 1.23877,0.12597 v 1.0708 L 8.26367,-0.887207 C 8.1237,-0.257324 7.89274,0.274577 7.5708,0.708496 L 8.38965,1.69531 7.61279,2.47217 6.62598,1.65332 C 6.19206,1.97526 5.66016,2.20622 5.03027,2.34619 L 4.8623,3.58496 H 3.7915 L 3.66553,2.34619 C 3.03564,2.20622 2.50374,1.97526 2.06982,1.65332 L 1.08301,2.47217 0.306152,1.69531 1.08301,0.708496 C 0.943034,0.484538 0.813558,0.236084 0.69458,-0.0368652 0.575602,-0.309814 0.488118,-0.593262 0.432129,-0.887207 l -1.23877,-0.167973 v -1.0708 l 1.23877,-0.12597 M 4.3584,-4.05762 c -0.69987,0 -1.29126,0.24146 -1.77417,0.72437 -0.48291,0.48291 -0.72437,1.0673 -0.72437,1.75317 0,0.699872 0.24146,1.291262 0.72437,1.774172 0.48291,0.48291 1.0743,0.724365 1.77417,0.724365 0.68587,0 1.27026,-0.241455 1.75317,-0.724365 0.48291,-0.48291 0.72437,-1.0743 0.72437,-1.774172 0,-0.68587 -0.24146,-1.27026 -0.72437,-1.75317 C 5.62866,-3.81616 5.04427,-4.05762 4.3584,-4.05762 m -6.84473,1.49073 c -0.25195,-0.19597 -0.5529,-0.40593 -0.90283,-0.62989 v -1.09179 c 0,-0.25196 0.12598,-0.37793 0.37793,-0.37793 h 2.330566 l 0.692871,0.86084 v 0.04199 H -2.48633 v 1.19678 M 11.707,-4.6665 c 0.224,0 0.336,0.12597 0.336,0.37793 v 9.76318 c 0,0.23796 -0.112,0.35693 -0.336,0.35693 H 5.72314 L 5.9751,8.91797 H 8.38965 V 10.0728 H 6.08008 2.63672 0.306152 V 8.91797 H 2.7207 L 2.93066,5.83154 H -3.01123 C -2.6333,5.56559 -2.28337,5.26465 -1.96143,4.92871 H 11.1401 V -3.76367 H 8.68359 V -3.80566 L 9.37646,-4.6665 H 11.707 M -5.97168,5.87354 c -0.60189,0 -1.17578,-0.11548 -1.72168,-0.34644 C -8.23926,5.29614 -8.71167,4.9812 -9.1106,4.58228 -9.50952,4.18335 -9.82446,3.71094 -10.0554,3.16504 c -0.231,-0.5459 -0.3465,-1.11979 -0.3465,-1.72168 0,-0.601889 0.1155,-1.175782 0.3465,-1.72168 0.23094,-0.545899 0.54588,-1.01831 0.9448,-1.41724 0.39893,-0.39892 0.87134,-0.71386 1.41724,-0.94482 0.5459,-0.23096 1.11979,-0.34644 1.72168,-0.34644 0.60189,0 1.17578,0.11548 1.72168,0.34644 0.5459,0.23096 1.01831,0.5459 1.41724,0.94482 0.39892,0.39893 0.71386,0.871341 0.94482,1.41724 0.23096,0.545898 0.34644,1.119791 0.34644,1.72168 0,0.60189 -0.11548,1.17578 -0.34644,1.72168 -0.23096,0.5459 -0.5459,1.01831 -0.94482,1.41724 C -3.23169,4.9812 -3.7041,5.29614 -4.25,5.5271 -4.7959,5.75806 -5.36979,5.87354 -5.97168,5.87354"
         fill-rule="evenodd"
         vector-effect="none" />
    </g>
    <g
       id="g16"
       font-style="normal"
       font-weight="400"
       font-size="7.8px"
       font-family="'MS Shell Dlg 2'"
       stroke="none"
       fill-opacity="1"
       fill="#4c62ad" />
  </g>
</svg>

<?xml version="1.0" encoding="UTF-8" standalone="no"?>
<svg width="11.2889mm" height="11.2889mm"
 viewBox="0 0 32 32"
 xmlns="http://www.w3.org/2000/svg" xmlns:xlink="http://www.w3.org/1999/xlink"  version="1.2" baseProfile="tiny">
<title>Qt SVG Document</title>
<desc>Generated with Qt</desc>
<defs>
</defs>
<g fill="none" stroke="black" stroke-width="1" fill-rule="evenodd" stroke-linecap="square" stroke-linejoin="bevel" >

<g fill="#4c62ad" fill-opacity="1" stroke="none" transform="matrix(1,0,0,1,0,0)"
font-family="MS Shell Dlg 2" font-size="7.8" font-weight="400" font-style="normal" 
>
<path vector-effect="non-scaling-stroke" fill-rule="evenodd" d="M37.2598,16 C37.2598,27.7415 27.7415,37.2598 16,37.2598 C4.25851,37.2598 -5.25984,27.7415 -5.25984,16 C-5.25984,4.25851 4.25851,-5.25984 16,-5.25984 C27.7415,-5.25984 37.2598,4.25851 37.2598,16 "/>
</g>

<g fill="#ffffff" fill-opacity="0.94902" stroke="none" transform="matrix(1,0,0,1,15.4331,12.5984)"
font-family="MS Shell Dlg 2" font-size="7.8" font-weight="400" font-style="normal" 
>
<path vector-effect="none" fill-rule="evenodd" d="M-3.34717,5.91553 C-2.36735,6.40544 -1.5765,7.1158 -0.974609,8.04663 C-0.372721,8.97746 -0.0717773,10.0168 -0.0717773,11.1646 L-0.0717773,14.6499 L-11.8086,14.6499 L-11.8086,11.1646 C-11.8086,10.0168 -11.5076,8.97746 -10.9058,8.04663 C-10.3039,7.1158 -9.52002,6.40544 -8.5542,5.91553 L-6.47559,8.14111 L-7.00049,12.2354 L-5.97168,13.7471 L-4.94287,12.2354 L-5.40479,8.14111 L-3.34717,5.91553 M0.432129,-2.25195 C0.488118,-2.5459 0.575602,-2.82935 0.69458,-3.10229 C0.813558,-3.37524 0.943034,-3.6237 1.08301,-3.84766 L0.306152,-4.83447 L1.08301,-5.61133 L2.06982,-4.83447 C2.29378,-4.97445 2.54224,-5.10392 2.81519,-5.2229 C3.08813,-5.34188 3.37158,-5.42936 3.66553,-5.48535 L3.7915,-6.72412 L4.8623,-6.72412 L5.03027,-5.48535 C5.32422,-5.42936 5.60767,-5.34188 5.88062,-5.2229 C6.15356,-5.10392 6.40202,-4.97445 6.62598,-4.83447 L7.61279,-5.61133 L8.38965,-4.83447 L7.5708,-3.84766 C7.89274,-3.38574 8.1237,-2.85384 8.26367,-2.25195 L9.50244,-2.12598 L9.50244,-1.05518 L8.26367,-0.887207 C8.1237,-0.257324 7.89274,0.274577 7.5708,0.708496 L8.38965,1.69531 L7.61279,2.47217 L6.62598,1.65332 C6.19206,1.97526 5.66016,2.20622 5.03027,2.34619 L4.8623,3.58496 L3.7915,3.58496 L3.66553,2.34619 C3.03564,2.20622 2.50374,1.97526 2.06982,1.65332 L1.08301,2.47217 L0.306152,1.69531 L1.08301,0.708496 C0.943034,0.484538 0.813558,0.236084 0.69458,-0.0368652 C0.575602,-0.309814 0.488118,-0.593262 0.432129,-0.887207 L-0.806641,-1.05518 L-0.806641,-2.12598 L0.432129,-2.25195 M4.3584,-4.05762 C3.65853,-4.05762 3.06714,-3.81616 2.58423,-3.33325 C2.10132,-2.85034 1.85986,-2.26595 1.85986,-1.58008 C1.85986,-0.880208 2.10132,-0.288818 2.58423,0.194092 C3.06714,0.677002 3.65853,0.918457 4.3584,0.918457 C5.04427,0.918457 5.62866,0.677002 6.11157,0.194092 C6.59448,-0.288818 6.83594,-0.880208 6.83594,-1.58008 C6.83594,-2.26595 6.59448,-2.85034 6.11157,-3.33325 C5.62866,-3.81616 5.04427,-4.05762 4.3584,-4.05762 M-2.48633,-2.56689 C-2.73828,-2.76286 -3.03923,-2.97282 -3.38916,-3.19678 L-3.38916,-4.28857 C-3.38916,-4.54053 -3.26318,-4.6665 -3.01123,-4.6665 L-0.680664,-4.6665 L0.012207,-3.80566 L0.012207,-3.76367 L-2.48633,-3.76367 L-2.48633,-2.56689 M11.707,-4.6665 C11.931,-4.6665 12.043,-4.54053 12.043,-4.28857 L12.043,5.47461 C12.043,5.71257 11.931,5.83154 11.707,5.83154 L5.72314,5.83154 L5.9751,8.91797 L8.38965,8.91797 L8.38965,10.0728 L6.08008,10.0728 L2.63672,10.0728 L0.306152,10.0728 L0.306152,8.91797 L2.7207,8.91797 L2.93066,5.83154 L-3.01123,5.83154 C-2.6333,5.56559 -2.28337,5.26465 -1.96143,4.92871 L11.1401,4.92871 L11.1401,-3.76367 L8.68359,-3.76367 L8.68359,-3.80566 L9.37646,-4.6665 L11.707,-4.6665 M-5.97168,5.87354 C-6.57357,5.87354 -7.14746,5.75806 -7.69336,5.5271 C-8.23926,5.29614 -8.71167,4.9812 -9.1106,4.58228 C-9.50952,4.18335 -9.82446,3.71094 -10.0554,3.16504 C-10.2864,2.61914 -10.4019,2.04525 -10.4019,1.44336 C-10.4019,0.841471 -10.2864,0.267578 -10.0554,-0.27832 C-9.82446,-0.824219 -9.50952,-1.29663 -9.1106,-1.69556 C-8.71167,-2.09448 -8.23926,-2.40942 -7.69336,-2.64038 C-7.14746,-2.87134 -6.57357,-2.98682 -5.97168,-2.98682 C-5.36979,-2.98682 -4.7959,-2.87134 -4.25,-2.64038 C-3.7041,-2.40942 -3.23169,-2.09448 -2.83276,-1.69556 C-2.43384,-1.29663 -2.1189,-0.824219 -1.88794,-0.27832 C-1.65698,0.267578 -1.5415,0.841471 -1.5415,1.44336 C-1.5415,2.04525 -1.65698,2.61914 -1.88794,3.16504 C-2.1189,3.71094 -2.43384,4.18335 -2.83276,4.58228 C-3.23169,4.9812 -3.7041,5.29614 -4.25,5.5271 C-4.7959,5.75806 -5.36979,5.87354 -5.97168,5.87354 "/>
</g>

<g fill="#4c62ad" fill-opacity="1" stroke="none" transform="matrix(1,0,0,1,0,0)"
font-family="MS Shell Dlg 2" font-size="7.8" font-weight="400" font-style="normal" 
>
</g>
</g>
</svg>
